cssgg/edit-black-point.svg

<svg
  width="24"
  height="24"
  viewBox="0 0 24 24"
  fill="none"
  xmlns="http://www.w3.org/2000/svg"
>
  <path
    fill-rule="evenodd"
    clip-rule="evenodd"
    d="M8 12C8 9.79086 9.79086 8 12 8C14.2091 8 16 9.79086 16 12C16 14.2091 14.2091 16 12 16C9.79086 16 8 14.2091 8 12ZM12 13C11.4477 13 11 12.5523 11 12C11 11.4477 11.4477 11 12 11C12.5523 11 13 11.4477 13 12C13 12.5523 12.5523 13 12 13Z"
    fill="currentColor"
  />
  <path
    fill-rule="evenodd"
    clip-rule="evenodd"
    d="M3 12C3 7.02944 7.02944 3 12 3C16.9706 3 21 7.02944 21 12C21 16.9706 16.9706 21 12 21C7.02944 21 3 16.9706 3 12ZM12 19C8.13401 19 5 15.866 5 12C5 8.13401 8.13401 5 12 5C15.866 5 19 8.13401 19 12C19 15.866 15.866 19 12 19Z"
    fill="currentColor"
  />
</svg>

<svg viewBox="0 0 24 24" xmlns="http://www.w3.org/2000/svg"><g fill-rule="evenodd"><path d="M8 12c0-2.21 1.79-4 4-4 2.2 0 4 1.79 4 4 0 2.2-1.8 4-4 4 -2.21 0-4-1.8-4-4Zm4 1c-.56 0-1-.45-1-1 0-.56.44-1 1-1 .55 0 1 .44 1 1 0 .55-.45 1-1 1Z"/><path d="M3 12c0-4.98 4.02-9 9-9 4.97 0 9 4.02 9 9 0 4.97-4.03 9-9 9 -4.98 0-9-4.03-9-9Zm9 7c-3.87 0-7-3.14-7-7 0-3.87 3.13-7 7-7 3.86 0 7 3.13 7 7 0 3.86-3.14 7-7 7Z"/></g></svg>
